optimized/outline/puzzle.svg

<svg xmlns="http://www.w3.org/2000/svg" fill="none" viewBox="0 0 24 24" stroke-width="2" stroke="currentColor" aria-hidden="true">
  <path stroke-linecap="round" stroke-linejoin="round" d="M11 4C11 2.89543 11.8954 2 13 2C14.1046 2 15 2.89543 15 4V5C15 5.55228 15.4477 6 16 6H19C19.5523 6 20 6.44772 20 7V10C20 10.5523 19.5523 11 19 11H18C16.8954 11 16 11.8954 16 13C16 14.1046 16.8954 15 18 15H19C19.5523 15 20 15.4477 20 16V19C20 19.5523 19.5523 20 19 20H16C15.4477 20 15 19.5523 15 19V18C15 16.8954 14.1046 16 13 16C11.8954 16 11 16.8954 11 18V19C11 19.5523 10.5523 20 10 20H7C6.44772 20 6 19.5523 6 19V16C6 15.4477 5.55228 15 5 15H4C2.89543 15 2 14.1046 2 13C2 11.8954 2.89543 11 4 11H5C5.55228 11 6 10.5523 6 10V7C6 6.44772 6.44772 6 7 6H10C10.5523 6 11 5.55228 11 5V4Z"/>
</svg>

<svg xmlns="http://www.w3.org/2000/svg" fill="none" viewBox="0 0 24 24" stroke-width="2" stroke="currentColor" aria-hidden="true">
  <path stroke-linecap="round" stroke-linejoin="round" d="M11 4a2 2 0 114 0v1a1 1 0 001 1h3a1 1 0 011 1v3a1 1 0 01-1 1h-1a2 2 0 100 4h1a1 1 0 011 1v3a1 1 0 01-1 1h-3a1 1 0 01-1-1v-1a2 2 0 10-4 0v1a1 1 0 01-1 1H7a1 1 0 01-1-1v-3a1 1 0 00-1-1H4a2 2 0 110-4h1a1 1 0 001-1V7a1 1 0 011-1h3a1 1 0 001-1V4z"/>
</svg>
